src/icons/outline/eye-off.svg

<svg width="24" height="24" viewBox="0 0 24 24" fill="none" xmlns="http://www.w3.org/2000/svg">
<path d="M13.8749 18.8246C13.2677 18.9398 12.6411 19 12.0005 19C7.52281 19 3.73251 16.0571 2.45825 12C2.80515 10.8955 3.33851 9.87361 4.02143 8.97118M9.87868 9.87868C10.4216 9.33579 11.1716 9 12 9C13.6569 9 15 10.3431 15 12C15 12.8284 14.6642 13.5784 14.1213 14.1213M9.87868 9.87868L14.1213 14.1213M9.87868 9.87868L6.58916 6.58916M14.1213 14.1213L17.4112 17.4112M3 3L6.58916 6.58916M6.58916 6.58916C8.14898 5.58354 10.0066 5 12.0004 5C16.4781 5 20.2684 7.94291 21.5426 12C20.8357 14.2507 19.3545 16.1585 17.4112 17.4112M17.4112 17.4112L21 21" stroke="#4B5563" stroke-width="2" stroke-linecap="round" stroke-linejoin="round"/>
</svg>

<svg xmlns="http://www.w3.org/2000/svg" fill="none" viewBox="0 0 24 24" stroke="currentColor">
  <path stroke-linecap="round" stroke-linejoin="round" stroke-width="2" d="M13.875 18.825A10.05 10.05 0 0112 19c-4.478 0-8.268-2.943-9.543-7a9.97 9.97 0 011.563-3.029m5.858.908a3 3 0 114.243 4.243M9.878 9.878l4.242 4.242M9.88 9.88l-3.29-3.29m7.532 7.532l3.29 3.29M3 3l3.59 3.59m0 0A9.953 9.953 0 0112 5c4.478 0 8.268 2.943 9.543 7a10.025 10.025 0 01-4.132 5.411m0 0L21 21"/>
</svg>
